X: 33
T:Rainy Day
R:reel
B:Scully's Irish Music Book and O'Neill's
Z:Added by Alf Warnock
M:4/4
L:1/8
K:G % 1 sharp
"Scully"
|:EAAG A3B|(3B^cd ef ged=c|BGGF G3A|BGdG eGdG|
EAAG A3B|cBAB cdef|g3e dBGA|BGdB BAA2:|
|:eaag a4|baa2 bgag|eggf g3a|bgg2 bgag|
eaag aged|(3B^cd ef g3e|g3e dBGA|BGdB BAA2:|
"O'Neill"
:EAAG A2Ac|BcdB cBAc|BGGA G2GA|(3Bcd ef gdBG|
EAAB AGAB|cBAB cdef|gbaf gedB|GBdB cAA2:|
|:eaag agag|e^def gabg|eggf g2ga|bgaf gedf|
eaag eaag|e^def gaba|(3gfe dB GBaf|gedB cAA2:|

